!!!OTL: Shang le lingzi luo le po
!!!ARE: Asia, China, Fujian, Liancheng
!! II, 616
!!!SCT: C1538
!!!YEM: Copyright 1995, estate of Helmut Schaffrath.
**kern
*ICvox
*Ivox
!! Mixed meters:  2/4; 3/4
*M3/4
*k[]
*C:
{16a
16cc
16a
16a
8a
16a
16a
=1
8ee
8a
8dd
16ee
16dd
=2
8a
8r}
{8r
16a
16a
=3
16a
16cc
16a
16a
8a
16a
16a
=4
8ee
8a
[4cc
=5
8cc]
16cc
16a}
{8r
16a
16a
=6
8a
8a
16a
16cc
16a
16a
=7
8ee
16a
16cc
16dd
16ee
8dd}
=8
{8r
16a
16a
=9
16a
16cc
8a
8a
16a
16a
=10
8ee
16a
16cc
4cc
=11
8cc
16cc
16a
4r}
==
!!!AGN: Shange. NannÅ qing
!!!AMT: irregular
!!!AIN: vox
!!!EED: Helmut Schaffrath
!!!EEV: 1.0
*-
!!!ONB: Tied note syntax fixed by Craig Sapp, 2004/05/03/
